!!!!SEGMENT: pl-kk--kk-i-7--047-001_cadeac-pierre--missa-dei-patris-kyrie.krn
!!!cenid: 16xx:852
!!!COM: Cadéac, Pierre
!!!COM-rismid: pe30006011
!!!CDT: ~1500-~1599
!!!CNT: German
!!!OPR: Missa Dei Patris
!!!OTL: Kyrie
!!!OMV: 001
!!!PDT:
!!!AGN: Sacred; Mass
!!!SMS-siglum: PL-Kk
!!!SMS-shelfmark: Kk.I.7
!!!SMS-shelfwork: 047-001 M
!!!SMS-variant:
!!!SMS-altvar:
!!!NIFC-rismid: 300258124
!!!URL-scan: http://repozytorium.nifc.pl/skany/pl-kk-nut--i-7
!!!ONB-nifc: UWAGA: C (skan 0042-0043, s.78-80), A (0126-0127, s.72-74), T(0202-0203, s.68-70), B(0291-0292, s.69-71). Części Mszy: 1. Kyrie, 2. Et in terra, 3. Sanctus, 4. Agnus Dei
**kern	**text	**kern	**text	**kern	**text	**kern	**text
*part4	*part4	*part3	*part3	*part2	*part2	*part1	*part1
*staff4	*staff4	*staff3	*staff3	*staff2	*staff2	*staff1	*staff1
*I"BASSVS.	*	*I"TENOR.	*	*I"ALTVS.	*	*I"CANTVS.	*
*I'B	*	*I'T	*	*I'A	*	*I'S	*
*clefF4	*	*clefC4	*	*clefC3	*	*clefC1	*
*k[b-]	*	*k[b-]	*	*k[b-]	*	*k[b-]	*
*g:dor	*	*g:dor	*	*g:dor	*	*g:dor	*
*M2/1	*	*M2/1	*	*M2/1	*	*M2/1	*
*met(c|)	*	*met(c|)	*	*met(c|)	*	*met(c|)	*
=1	=1	=1	=1	=1	=1	=1	=1
!LO:TX:t=P:problem:znaki B- BB-]	!	!	!	!LO:TX:t=P:problem:kreska pseudotaktowa	!	!	!
!LO:TX:t=P:problem:przed kluczem inicjał K	!	!LO:TX:a:i:t=Miſsa\nDEI Patris	!	!	!	!LO:TX:a:i:t=Miſsa\nDEI Patris.	!
!LO:TX:a:i:t=Miſsa DEI Patris.	!	!	!	!LO:TX:a:i:t=Miſsa\nDEI Patris	!	!LO:TX:t=P:problem:przed kluczem inicjał K	!
!	!	!LO:TX:t=P:problem:przed kluczem inicjał K	!	!LO:TX:t=P:problem:przed kluczem inicjał K	!	!	!
00r	.	00r	.	1r	.	1.g\	Ky-
*	*	*	*	*lig	*	*	*
.	.	.	.	1G/	Ky-	.	.
!	!	!	!	!	!	!LO:TX:t=P:problem:kreska pseudotaktowa	!
.	.	.	.	.	.	2g/	-ri-
=2-	=2-	=2-	=2-	=2-	=2-	=2-	=2-
.	.	.	.	1.d\	.	2.f/	-e
.	.	.	.	.	.	4e/	e-
.	.	.	.	.	.	2f/	.
!	!	!	!	!	!	!LO:TX:t=P:problem:kreska pseudotaktowa	!
*	*	*	*	*Xlig	*	*2\right	*
.	.	.	.	4c/	-ri-	2g\	.
!	!	!	!	!LO:TX:t=P:problem:kreska pseudotaktowa	!	!	!
.	.	.	.	4B-/	.	.	.
=3-	=3-	=3-	=3-	=3-	=3-	=3-	=3-
!	!	!LO:TX:t=P:problem:kreska pseudotaktowa	!	!	!	!	!
0r	.	0r	.	2c\	-e	1a\	.
.	.	.	.	2d\	.	.	.
.	.	.	.	2G/	.	0b-\	-lei-
.	.	.	.	2.d\	e-	.	.
=4-	=4-	=4-	=4-	=4-	=4-	=4-	=4-
!LO:TX:t=P:problem:kreska pseudotaktowa	!	!	!	!	!	!	!
*	*	*lig	*	*	*	*	*
1r	.	1G/	Ky-	.	.	.	.
.	.	.	.	4c/	.	.	.
.	.	.	.	4B-/	.	.	.
!	!	!	!	!LO:TX:t=P:problem:kreska pseudotaktowa	!	!	!
.	.	.	.	4A/	.	.	.
!	!	!	!	!	!	!LO:TX:t=P:problem:kreska pseudotaktowa	!
1.G\	Ky-	1.d\	.	0B-/	-lei-	1g\	-ſon
*	*	*Xlig	*	*	*	*	*
=5-	=5-	=5-	=5-	=5-	=5-	=5-	=5-
.	.	.	.	.	.	2r	.
!LO:TX:t=P:problem:kreska pseudotaktowa	!	!	!	!	!	!LO:TX:t=P:problem:kreska pseudotaktowa	!
2G\	-ri-	4c\	-ri-	.	.	2d/	Ky-
.	.	4B-\	.	.	.	.	.
2F\	-e	2c\	-e	2A/	.	1f/	-ri-
!	!	!LO:TX:t=P:problem:kreska pseudotaktowa	!	!	!	!	!
2D\	e-	2d\	.	1B-/	.	.	.
=6-	=6-	=6-	=6-	=6-	=6-	=6-	=6-
*	*	*lig	*	*	*	*	*
!	!	!	!	!	!	!LO:TX:t=P:problem:kreska pseudotaktowa	!
1E\	-lei-	1G/	e-	.	.	1g\	-e
.	.	.	.	4A/	.	.	.
.	.	.	.	4G/	.	.	.
!LO:TX:t=P:problem:kreska pseudotaktowa	!	!	!	!	!	!	!
1D\	-son	1d\	.	2B-/	.	1f/	e-
.	.	.	.	1A/	.	.	.
*	*	*Xlig	*	*	*	*	*
=7-	=7-	=7-	=7-	=7-	=7-	=7-	=7-
0r	.	2c\	.	.	.	2e/	.
!	!	!LO:TX:t=P:problem:kreska pseudotaktowa	!	!	!	!	!
.	.	2B-\	.	1d\	.	2d/	.
!	!	!	!	!	!	!LO:TX:t=P:problem:kreska pseudotaktowa	!
.	.	1A\	-lei-	.	.	1e/	.
.	.	.	.	2c\	.	.	.
=8-	=8-	=8-	=8-	=8-	=8-	=8-	=8-
!LO:TX:t=P:problem:kreska pseudotaktowa	!	!	!	!LO:TX:t=P:problem:kreska pseudotaktowa	!	!	!
1r	.	2B-\	.	0.d\	-son	2d/	.
.	.	2G/	.	.	.	1g\	.
*lig	*	*	*	*	*	*	*
1GG/	Ky-	1B-\	.	.	.	.	.
!	!	!	!	!	!	!LO:TX:t=P:problem:kreska pseudotaktowa	!
.	.	.	.	.	.	2g/	.
=9-	=9-	=9-	=9-	=9-	=9-	=9-	=9-
!	!	!LO:TX:t=P:problem:kreska pseudotaktowa	!	!	!	!	!
1.D\	.	1A\	-son	.	.	1.f/	-lei-
.	.	1r	.	1d\	Ky-	.	.
*Xlig	*	*	*	*	*	*	*
4C/	-ri-	.	.	.	.	2g\	.
4BB-/	.	.	.	.	.	.	.
=10-	=10-	=10-	=10-	=10-	=10-	=10-	=10-
*	*	*	*ij	*	*	*lig	*
2C/	-e	2r	.	2e\	.	1a\	.
!LO:TX:t=P:problem:kreska pseudotaktowa	!	!	!	!	!	!	!
2D\	.	2.d\	Ky-	2f\	-ri-	.	.
2GG/	.	.	.	2.g\	-e	1b-\	.
.	.	4c\	.	.	.	.	.
2.G\	e-	4B-\	.	.	.	.	.
!	!	!LO:TX:t=P:problem:kreska pseudotaktowa	!	!LO:TX:t=P:problem:kreska pseudotaktowa	!	!	!
.	.	4A\	.	4f\	.	.	.
*	*	*	*	*	*	*Xlig	*
=11-	=11-	=11-	=11-	=11-	=11-	=11-	=11-
!	!	!	!	!	!	!LO:TX:t=P:problem:kreska pseudotaktowa	!
.	.	1.B-\	-ri-	2e\	e-	0g\	-son
4F\	.	.	.	.	.	.	.
4E\	.	.	.	1d\	.	.	.
4D\	.	.	.	.	.	.	.
1E\	-lei-	.	.	.	.	.	.
.	.	4A/	.	2c\	.	.	.
.	.	4G/	.	.	.	.	.
=12-	=12-	=12-	=12-	=12-	=12-	=12-	=12-
!LO:TX:t=P:problem:kreska pseudotaktowa	!	!	!	!	!	!LO:TX:t=P:problem:kreska pseudotaktowa	!
0D\	.	2B-\	-e	2d\	.	1r	.
.	.	1A\	e-	1f\	.	.	.
.	.	.	.	.	.	2r	.
!	!	!	!	!	!	!LO:TX:t=P:problem:kreska pseudotaktowa	!
.	.	1d\	.	4e\	.	2d/	e-
.	.	.	.	4d\	.	.	.
=13-	=13-	=13-	=13-	=13-	=13-	=13-	=13-
1AA/	.	.	.	1e\	-lei-	1.a\	-lei-
.	.	2c\	-lei-	.	.	.	.
!	!	!	!	!LO:TX:t=P:problem:kreska pseudotaktowa	!	!	!
!LO:TX:t=P:problem:kreska pseudotaktowa	!	!LO:TX:t=P:problem:kreska pseudotaktowa	!	!LO:SIC:v:t=custos e	!	!	!
1D\	-son	1d\	-son	1d\	.	.	.
.	.	.	.	.	.	4g/	.
!	!	!	!	!	!	!LO:TX:t=P:problem:kreska pseudotaktowa	!
.	.	.	.	.	.	4f/	.
=14-	=14-	=14-	=14-	=14-	=14-	=14-	=14-
!	!	!	!	!LO:LB:g=original	!	!	!
1r	.	1r	.	2e\	.	2g\	.
!	!	!	!	!	!	!LO:TX:t=P:problem:kreska pseudotaktowa	!
!	!	!	!	!	!	!LO:SIC:v:t=custos b	!
.	.	.	.	2d\	.	2a\	.
*lig	*	*	*Xij	*	*	*	*
!	!	!	!	!	!	!LO:LB:g=original	!
1GG/	Ky-	2r	.	2G,</	-son	1b-\	.
.	.	1G/	Ky-	1d\	Ky-	.	.
=15-	=15-	=15-	=15-	=15-	=15-	=15-	=15-
!	!	!	!	!	!	!LO:TX:t=P:problem:kreska pseudotaktowa	!
1.D\	.	.	-ri-	.	.	1a\	-son
!	!	!	!	!LO:TX:t=P:problem:kreska pseudotaktowa	!	!	!
.	.	2F/	-e	2d\	-ri-	.	.
.	.	1B-\	.	2d\	-e-	0r	.
*Xlig	*	*	*	*	*	*	*
4C/	-ri-	.	.	2f\	-e-	.	.
4BB-/	.	.	.	.	.	.	.
=16-	=16-	=16-	=16-	=16-	=16-	=16-	=16-
2C/	-e	2G/	.	2e\	-lei-	.	.
2D\	.	1B-\	.	1d\	.	.	.
1E\	.	.	.	.	.	2r	.
!	!	!	!	!LO:TX:t=P:problem:♯above	!	!	!
.	.	4A/	.	2c#X\	.	1g\	Ky-
!	!	!LO:TX:t=P:problem:kreska pseudotaktowa	!	!	!	!	!
.	.	4G/	.	.	.	.	.
=17-	=17-	=17-	=17-	=17-	=17-	=17-	=17-
!LO:TX:t=P:problem:kreska pseudotaktowa	!	!	!	!LO:TX:t=P:problem:kreska pseudotaktowa	!	!	!
1D\	.	1A\	e-	1d\,<	-son	.	.
!	!	!	!	!	!	!LO:TX:t=P:problem:kreska pseudotaktowa	!
.	.	.	.	.	.	2f/	-ri-
*	*	*	*	*	*ij	*	*
2GG/	e-	2.G/	.	1.d\	Ky-	1b-\	-e
1G\	.	.	.	.	.	.	.
!	!	!LO:TX:t=P:problem:kreska pseudotaktowa	!	!	!	!	!
!	!	!LO:SIC:v:t=custos B	!	!	!	!	!
.	.	4A/	.	.	.	.	.
=18-	=18-	=18-	=18-	=18-	=18-	=18-	=18-
!	!	!LO:LB:g=original	!	!	!	!	!
.	.	2B-\	-lei-	.	.	2g\	.
2C/	.	1c\	.	2e\	-ri-	1a\	e-
2F\	-lei-	.	.	2f\	.	.	.
!	!	!	!	!	!	!LO:TX:t=P:problem:kreska pseudotaktowa	!
2G\	.	2B-\	.	1d\	-e	2g\	.
=19-	=19-	=19-	=19-	=19-	=19-	=19-	=19-
!	!	!	!	!	!	!LO:TX:t=P:problem:♯above	!
2D\	.	2A\	.	.	.	2f#X/	-lei-
!LO:TX:t=P:problem:kreska pseudotaktowa	!	!	!	!	!	!	!
2E\	.	2G/	.	2c#X/	e-	1g\	.
1D\	.	1A\	.	1d\	-lei-	.	.
.	.	.	.	.	.	2f#/	.
=20-	=20-	=20-	=20-	=20-	=20-	=20-	=20-
0GG/	-son.	0Bn\;	-son.	0d\;	-son	0g\;	-son.
=21||	=21||	=21||	=21||	=21||	=21||	=21||	=21||
*M2/1	*	*M2/1	*	*M2/1	*	*M2/1	*
*met(c|)	*	*met(c|)	*	*met(c|)	*	*met(c|)	*
!LO:TX:t=P:problem:przed kluczem inicjał C	!	!LO:TX:t=P:problem:przed kluczem inicjał C	!	!LO:TX:t=P:problem:przed kluczem inicjał C	!	!LO:TX:t=P:problem:przed kluczem inicjał C	!
!LO:LB:g=original	!	!	!	!	!	!	!
00r	.	00r	.	1d\	Chri-	0r	.
.	.	.	.	2c/	-ste	.	.
!	!	!	!	!LO:TX:t=P:problem:kreska pseudotaktowa	!	!	!
.	.	.	.	2B-X/	e-	.	.
=22-	=22-	=22-	=22-	=22-	=22-	=22-	=22-
!	!	!	!	!	!	!LO:TX:t=P:problem:kreska pseudotaktowa	!
.	.	.	.	1e-X\	-lei-	1r	.
.	.	.	.	1d\	.	1a\	Chri-
=23-	=23-	=23-	=23-	=23-	=23-	=23-	=23-
!	!	!LO:TX:t=P:problem:kreska pseudotaktowa	!	!	!	!	!
00r	.	0r	.	2G,</	-ſon	2g/	-ste
!	!	!	!	!	!	!LO:TX:t=P:problem:kreska pseudotaktowa	!
.	.	.	.	1d\	X-	2f/	.
.	.	.	.	.	.	1b-\	.
!	!	!	!	!LO:TX:t=P:problem:kreska pseudotaktowa	!	!	!
!	!	!	!	!LO:TX:t=P:problem:♮above	!	!	!
.	.	.	.	2en\	-te	.	.
=24-	=24-	=24-	=24-	=24-	=24-	=24-	=24-
.	.	1d\	Chri-	1f\	e-	1.a\	e-
.	.	2c\	-ste	2e\	.	.	.
.	.	2B-\	e-	2d\	.	1b-\	.
=25-	=25-	=25-	=25-	=25-	=25-	=25-	=25-
!LO:TX:t=P:problem:kreska pseudotaktowa	!	!	!	!	!	!	!
1r	.	1e\	-ley-	2G/	.	.	.
.	.	.	.	1g\	-lei-	4a\	.
!	!	!	!	!	!	!LO:TX:t=P:problem:kreska pseudotaktowa	!
.	.	.	.	.	.	4g\	.
!	!	!LO:TX:t=P:problem:kreska pseudotaktowa	!	!	!	!	!
1D\	Chri-	1d\	-son	.	.	1.a\	.
.	.	.	.	2f\	.	.	.
=26-	=26-	=26-	=26-	=26-	=26-	=26-	=26-
!	!	!LO:TX:t=P:problem:kreska pseudotaktowa	!	!	!	!	!
2C/	-ste	0r	.	2e\	.	.	.
!	!	!	!	!	!	!LO:TX:t=P:problem:kreska pseudotaktowa	!
2BB-/	.	.	.	1d\	.	[<2b-\	.
!LO:TX:t=P:problem:♭above	!	!	!	!	!	!LO:N:xstem:cue	!
1E-X\	e-	.	.	.	.	4b-\]	.
.	.	.	.	.	.	4a\	.
!	!	!	!	!LO:TX:t=P:problem:kreska pseudotaktowa	!	!	!
!	!	!	!	!LO:SIC:v:t=custos d	!	!	!
.	.	.	.	2c\	.	1g\	.
=27-	=27-	=27-	=27-	=27-	=27-	=27-	=27-
!	!	!	!	!LO:LB:g=original	!	!	!
*	*	*	*ij	*	*	*	*
1D\	-lei-	1A\	Chri-	1d\	-son	.	.
!	!	!	!	!	!	!LO:TX:t=P:problem:kreska pseudotaktowa	!
.	.	.	.	.	.	2f/	.
2GG/	.	2G/	-ste	2r	.	2g\	.
1D\	.	2F/	e-	1f\	Chri-	1a\	.
=28-	=28-	=28-	=28-	=28-	=28-	=28-	=28-
.	.	1B-\	-ley-	.	.	.	.
!LO:TX:t=P:problem:kreska pseudotaktowa	!	!	!	!	!	!LO:TX:t=P:problem:kreska pseudotaktowa	!
2Eny\	.	.	.	4e\	.	2g\	.
!	!	!	!	!LO:TX:t=P:problem:kreska pseudotaktowa	!	!	!
.	.	.	.	4d\	.	.	.
!	!	!LO:TX:t=P:problem:kreska pseudotaktowa	!	!	!	!	!
2F\	.	1A\	-son	2c\	-ste	2a\	.
1D\	.	.	.	2d\	.	1f/	.
=29-	=29-	=29-	=29-	=29-	=29-	=29-	=29-
.	.	1r	.	2A/	e-	.	.
4C/	.	.	.	1d\	.	4e/	.
!	!	!	!	!	!	!LO:TX:t=P:problem:kreska pseudotaktowa	!
4BB-/	.	.	.	.	.	4d/	.
!LO:TX:t=P:problem:kreska pseudotaktowa	!	!	!	!	!	!LO:LB:g=original	!
1AA/	-son	1A\	Chri-	.	.	2.e/	.
!	!	!	!	!LO:TX:t=P:problem:kreska pseudotaktowa	!	!	!
.	.	.	.	2c\	.	.	.
.	.	.	.	.	.	4f/	.
=30-	=30-	=30-	=30-	=30-	=30-	=30-	=30-
0r	.	2G/	-ste	2d\	-lei-	2g\	.
!	!	!	!	!	!	!LO:TX:t=P:problem:kreska pseudotaktowa	!
.	.	2F/	e-	1f\	.	2a\	.
.	.	1B-\	-ley-	.	.	2d/	.
.	.	.	.	4e\	.	1dd\	-lei-
!	!	!	!	!LO:TX:t=P:problem:kreska pseudotaktowa	!	!	!
.	.	.	.	4d\	.	.	.
=31-	=31-	=31-	=31-	=31-	=31-	=31-	=31-
!LO:TX:t=P:problem:kreska pseudotaktowa	!	!LO:TX:t=P:problem:kreska pseudotaktowa	!	!	!	!	!
1r	.	1A\	-son	1e\	.	.	.
*	*	*	*Xij	*	*	*	*
.	.	.	.	.	.	2cc#X\	.
!	!	!LO:TX:t=P:problem:kreska pseudotaktowa	!	!LO:TX:t=P:problem:kreska pseudotaktowa	!	!	!
2r	.	1r	.	1d\	-son	0dd\	-son
1G\	Chri-	.	.	.	.	.	.
=32-	=32-	=32-	=32-	=32-	=32-	=32-	=32-
!	!	!	!	!LO:TX:t=P:problem:kreska pseudotaktowa	!	!LO:TX:t=P:problem:kreska pseudotaktowa	!
.	.	1d\	X-	00r	.	.	.
!LO:TX:t=P:problem:kreska pseudotaktowa	!	!	!	!	!	!	!
2F\	-ste	.	.	.	.	.	.
2E\	.	2c\	-te	.	.	00r	.
2.G\	.	2B-\	e-	.	.	.	.
=33-	=33-	=33-	=33-	=33-	=33-	=33-	=33-
.	.	1e\	-lei-	.	.	.	.
4F\	e-	.	.	.	.	.	.
4G\	.	.	.	.	.	.	.
!LO:TX:t=P:problem:kreska pseudotaktowa	!	!	!	!	!	!	!
4A\	.	.	.	.	.	.	.
2B-\	.	2.d\	.	.	.	.	.
2.BB-/	.	.	.	.	.	.	.
!	!	!LO:TX:t=P:problem:kreska pseudotaktowa	!	!	!	!	!
.	.	4c\	.	.	.	.	.
=34-	=34-	=34-	=34-	=34-	=34-	=34-	=34-
.	.	4B-\	.	1d\	X-	.	.
4C/	.	4A\	.	.	.	.	.
4D/	.	2B-\	.	.	.	.	.
4E\	.	.	.	.	.	.	.
2F\	.	2A\	.	2c/	-te	0r	.
!LO:TX:t=P:problem:kreska pseudotaktowa	!	!	!	!LO:TX:t=P:problem:kreska pseudotaktowa	!	!	!
2D\	.	1B-\	.	2B-/	e-	.	.
=35-	=35-	=35-	=35-	=35-	=35-	=35-	=35-
1C/	.	.	.	1e\	-lei-	.	.
!	!	!LO:TX:t=P:problem:kreska pseudotaktowa	!	!	!	!	!
.	.	2A\	.	.	.	.	.
!	!	!LO:LB:g=original	!	!	!	!LO:TX:t=P:problem:kreska pseudotaktowa	!
2.BB-/	-lei-	2B-\	-son	2d\	.	1r	.
.	.	2.F/	e-	2.f\	.	.	.
4C/	.	.	.	.	.	.	.
=36-	=36-	=36-	=36-	=36-	=36-	=36-	=36-
4D\	.	.	.	.	.	2r	.
4E\	.	4G/	.	4e\	.	.	.
!LO:TX:t=P:problem:kreska pseudotaktowa	!	!	!	!	!	!LO:TX:t=P:problem:kreska pseudotaktowa	!
2F\	.	4A/	.	4c\	.	2a\	X-
!	!	!LO:TX:t=P:problem:kreska pseudotaktowa	!	!	!	!	!
.	.	4B-/	.	4d\	.	.	.
2E\	.	2c\	.	2en\	.	2g\	-te
!	!	!	!	!	!	!LO:TX:t=P:problem:kreska pseudotaktowa	!
2D\	.	1d\	.	1f\	.	2f/	e-
=37-	=37-	=37-	=37-	=37-	=37-	=37-	=37-
!LO:TX:t=P:problem:kreska pseudotaktowa	!	!	!	!	!	!	!
*	*	*	*	*	*	*lig	*
1G\	.	.	.	.	.	1b-\	-lei-
!	!	!	!	!LO:TX:t=P:problem:kreska pseudotaktowa	!	!	!
.	.	2B-\	.	2e\	.	.	.
2.F\	.	2c\	.	1.f\	.	1a\	.
*	*	*	*	*	*	*Xlig	*
.	.	1A\	.	.	.	.	.
4E\	.	.	.	.	.	.	.
=38-	=38-	=38-	=38-	=38-	=38-	=38-	=38-
2D/	.	.	.	.	.	1f/	.
2BB-/	.	2B-\	.	1d\	.	.	.
1E-X\	.	1G/	-lei-	.	.	1.g\	.
.	.	.	.	2c#X/	.	.	.
=39-	=39-	=39-	=39-	=39-	=39-	=39-	=39-
0D\;	-son.	0A\;	-son.	0d\;	-son	.	.
.	.	.	.	.	.	4f#X/	.
.	.	.	.	.	.	4e/	.
!	!	!	!	!	!	!LO:N:vis=0	!
.	.	.	.	.	.	1f#/;	-son
=40||	=40||	=40||	=40||	=40||	=40||	=40||	=40||
*M2/1	*	*M2/1	*	*M2/1	*	*M2/1	*
*met(c|)	*	*met(c|)	*	*met(c|)	*	*met(c|)	*
!LO:LB:g=original	!	!	!	!LO:TX:t=P:problem:kreska pseudotaktowa	!	!	!
!LO:TX:t=P:problem:przed kluczem inicjał K	!	!LO:TX:t=P:problem:przed kluczem inicjał K	!	!LO:TX:t=P:problem:przed kluczem inicjał K	!	!LO:TX:t=P:problem:przed kluczem inicjał K	!
00r	.	0r	.	1r	.	1.fn/	Ky-
.	.	.	.	1B-/	Ky-	.	.
.	.	.	.	.	.	2f/	-ri-
=41-	=41-	=41-	=41-	=41-	=41-	=41-	=41-
!	!	!LO:TX:t=P:problem:kreska pseudotaktowa	!	!	!	!	!
.	.	1r	.	2B-/	-ri-	2g\	-e
!	!	!	!	!	!	!LO:TX:t=P:problem:kreska pseudotaktowa	!
.	.	.	.	2c/	.	2a\	.
!	!	!	!	!LO:TX:t=P:problem:kreska pseudotaktowa	!	!	!
.	.	1.B-\	Ky-	1d\	-e	2f/	.
.	.	.	.	.	.	1b-\	.
=42-	=42-	=42-	=42-	=42-	=42-	=42-	=42-
!LO:TX:t=P:problem:kreska pseudotaktowa	!	!	!	!	!	!	!
0r	.	.	.	2G/	e-	.	.
.	.	2B-\	-ri-	1g\	.	4a\	.
!	!	!	!	!	!	!LO:TX:t=P:problem:kreska pseudotaktowa	!
.	.	.	.	.	.	4g\	.
.	.	2c\	-e	.	.	1a\	e-
!	!	!LO:TX:t=P:problem:kreska pseudotaktowa	!	!LO:TX:t=P:problem:kreska pseudotaktowa	!	!	!
.	.	2d\	.	2f\	.	.	.
=43-	=43-	=43-	=43-	=43-	=43-	=43-	=43-
!	!	!	!	!LO:LB:g=original	!	!	!
2r	.	2G/	e-	2g\	.	2.b-\	.
1BB-/	Ky-	2.B-\	-lei-	1d\	-lei-	.	.
!	!	!	!	!	!	!LO:TX:t=P:problem:kreska pseudotaktowa	!
.	.	.	.	.	.	4a\	.
.	.	.	.	.	.	2.f/	-lei-
.	.	4A/	.	.	.	.	.
!LO:TX:t=P:problem:kreska pseudotaktowa	!	!	!	!	!	!	!
2BB-/	-ri-	1G/	.	4c/	.	.	.
!	!	!	!	!LO:TX:t=P:problem:kreska pseudotaktowa	!	!	!
.	.	.	.	4B-/	.	8e/L	.
!	!	!	!	!	!	!LO:TX:t=P:problem:kreska pseudotaktowa	!
.	.	.	.	.	.	8d/J	.
=44-	=44-	=44-	=44-	=44-	=44-	=44-	=44-
!	!	!	!	!	!	!LO:LB:g=original	!
2C/	-e	.	.	1A/	.	2e/	.
2D\	.	2F/	.	.	.	2d/	.
!	!	!LO:TX:t=P:problem:kreska pseudotaktowa	!	!	!	!LO:TX:t=P:problem:kreska pseudotaktowa	!
2GG/	e-	1G/	-son	2G,</	-son	1d/	-son
*	*	*	*ij	*	*ij	*	*
1G\	.	.	.	2B-/	Ky-	.	.
=45-	=45-	=45-	=45-	=45-	=45-	=45-	=45-
.	.	2r	.	2B-/	-rie	1r	.
4F\	.	2G/	Ky-	2c\	e-	.	.
!LO:TX:t=P:problem:kreska pseudotaktowa	!	!	!	!	!	!	!
4E\	.	.	.	.	.	.	.
!	!	!	!	!LO:TX:t=P:problem:kreska pseudotaktowa	!	!	!
*	*	*	*	*	*	*	*ij
1D\	-lei-	2.A\	-ri-	1d\	-lei-	1f/	Ky-
.	.	4B-\	-e	.	.	.	.
=46-	=46-	=46-	=46-	=46-	=46-	=46-	=46-
2C/	.	2c\	e-	2G,</	-son	2g\	.
*	*	*	*	*	*Xij	*	*
!	!	!	!	!	!	!LO:TX:t=P:problem:kreska pseudotaktowa	!
2E\	.	2G/	-lei-	1g\	Ky-	2g\	-ri-
!	!	!LO:TX:t=P:problem:kreska pseudotaktowa	!	!	!	!	!
1D\	.	1d\	-son	.	.	1a\	-e
*	*	*	*Xij	*	*	*	*
!	!	!	!	!LO:TX:t=P:problem:kreska pseudotaktowa	!	!	!
.	.	.	.	2f\	-ri-	.	.
=47-	=47-	=47-	=47-	=47-	=47-	=47-	=47-
!LO:TX:t=P:problem:kreska pseudotaktowa	!	!	!	!	!	!	!
1GG/	-son	2r	.	2en\	-e	1b-\	e-
.	.	1B-\	Ky-	2.d\	.	.	.
!LO:TX:t=P:problem:kreska pseudotaktowa	!	!	!	!	!	!	!
00r	.	.	.	.	.	2.f/	.
.	.	.	.	4c\	.	.	.
.	.	4A/	-ri-	4d\	.	.	.
!	!	!	!	!LO:TX:t=P:problem:kreska pseudotaktowa	!	!LO:TX:t=P:problem:kreska pseudotaktowa	!
.	.	4G/	.	4e\	.	4g/	.
=48-	=48-	=48-	=48-	=48-	=48-	=48-	=48-
.	.	2F/	-e	2.f\	e-	4a\	.
.	.	.	.	.	.	4b-\	.
.	.	2A\	e-	.	.	2.cc\	.
.	.	.	.	4e\	.	.	.
.	.	2B-\	.	2d\	-lei-	.	.
.	.	.	.	.	.	4b-\	.
.	.	2G/	-lei-	4c/	.	1b-\	-lei-
.	.	.	.	4B-/	.	.	.
=49-	=49-	=49-	=49-	=49-	=49-	=49-	=49-
!	!	!LO:TX:t=P:problem:kreska pseudotaktowa	!	!	!	!	!
.	.	1F/	-ſon	1c\	.	.	.
.	.	.	.	.	.	2a\	.
*	*ij	*	*	*	*	*	*
!	!	!	!	!LO:TX:t=P:problem:kreska pseudotaktowa	!	!LO:TX:t=P:problem:kreska pseudotaktowa	!
1.BB-/	Ky-	2r	.	0B-/	-son	1b-\	-son
*	*	*	*ij	*	*	*	*Xij
.	.	2F/	Ky-	.	.	.	.
=50-	=50-	=50-	=50-	=50-	=50-	=50-	=50-
.	.	2F/	-ri-	.	.	1r	.
2BB-/	-ri-	2G/	.	.	.	.	.
2C/	-e	2A\	-e	0r	.	2r	.
!	!	!LO:TX:t=P:problem:kreska pseudotaktowa	!	!	!	!LO:TX:t=P:problem:kreska pseudotaktowa	!
2.D/	e-	2B-\	.	.	.	2f/	Ky-
=51-	=51-	=51-	=51-	=51-	=51-	=51-	=51-
.	.	2A\	.	.	.	2f/	-ri-
4C/	.	.	.	.	.	.	.
2BB-/	.	1G/	e-	.	.	2g\	.
1AA/	-lei-	.	.	1r	.	1a\	-e
.	.	2F/	-lei-	.	.	.	.
=52-	=52-	=52-	=52-	=52-	=52-	=52-	=52-
*	*	*	*	*	*ij	*	*
!LO:TX:t=P:problem:kreska pseudotaktowa	!	!LO:TX:t=P:problem:kreska pseudotaktowa	!	!	!	!	!
1GG/	-son	1G/	-ſon	1B-/	Ky-	2.d/	e-
!	!	!	!	!	!	!LO:TX:t=P:problem:kreska pseudotaktowa	!
.	.	.	.	.	.	4e/	.
*	*Xij	*	*	*	*	*	*
!	!	!LO:TX:t=P:problem:kreska pseudotaktowa	!	!	!	!	!
1r	.	0r	.	2B-/	-rie	4f/	.
.	.	.	.	.	.	4g/	.
.	.	.	.	2c/	e-	1a\	.
=53-	=53-	=53-	=53-	=53-	=53-	=53-	=53-
1D\	Ky-	.	.	1d\	-lei-	.	.
.	.	.	.	.	.	4g/	.
!	!	!	!	!	!	!LO:TX:t=P:problem:kreska pseudotaktowa	!
.	.	.	.	.	.	4f/	.
!	!	!	!	!LO:TX:t=P:problem:kreska pseudotaktowa	!	!	!
2C/	-ri-	2r	.	1G/	-son	2e/	.
*	*	*	*Xij	*	*Xij	*	*
!LO:TX:t=P:problem:kreska pseudotaktowa	!	!LO:TX:t=P:problem:kreska pseudotaktowa	!	!	!	!	!
2BB-/	.	2B-\	Ky-	.	.	2d/	.
=54-	=54-	=54-	=54-	=54-	=54-	=54-	=54-
1E\	-e	2B-\	-ri-	1r	.	1g\	.
.	.	2c\	-e	.	.	.	.
!	!	!	!	!	!	!LO:TX:t=P:problem:kreska pseudotaktowa	!
2.D\	e-	2d\	.	1d\	Ky-	1f/	.
.	.	2.f\	e-	.	.	.	.
4E\	.	.	.	.	.	.	.
=55-	=55-	=55-	=55-	=55-	=55-	=55-	=55-
2F\	.	.	.	2c/	-ri-	2a\	.
.	.	4e\	.	.	.	.	.
!	!	!LO:TX:t=P:problem:kreska pseudotaktowa	!	!	!	!	!
2G\	.	2d\	.	2B-/	.	2b-\	.
!LO:TX:t=P:problem:kreska pseudotaktowa	!	!	!	!LO:TX:t=P:problem:♭above	!	!	!
1C/	-lei-	2.c\	.	1e-X\	-e	1g\	-lei-
.	.	4B-\	.	.	.	.	.
=56-	=56-	=56-	=56-	=56-	=56-	=56-	=56-
2D\	.	2A/	.	2d\	e-	2f#X/	.
2E\	.	2G/	.	2c\	.	1g\	.
1D\	.	1A\	-lei-	1d\	-lei-	.	.
.	.	.	.	.	.	2f#X/	.
=57-	=57-	=57-	=57-	=57-	=57-	=57-	=57-
0GG/;	-son	0Bn\;	-son	0d\;	-son.	0g\;	-son.
==	==	==	==	==	==	==	==
*-	*-	*-	*-	*-	*-	*-	*-
!!!RDF**kern: > = above
!!!RDF**kern: < = below
!!!system-decoration: [(s1,s2,s3,s4)]
!!!EED: Andrzej Borzym
!!!EST: 2021-03-15
!!!ENC: Andrzej Borzym
!!!END: 2021-02-25
